icons/svg/tourist/statue.svg

<?xml version="1.0" encoding="UTF-8" standalone="no"?>
<!-- Created with Inkscape (http://www.inkscape.org/) -->

<svg
   xmlns:dc="http://purl.org/dc/elements/1.1/"
   xmlns:cc="http://creativecommons.org/ns#"
   xmlns:rdf="http://www.w3.org/1999/02/22-rdf-syntax-ns#"
   xmlns:svg="http://www.w3.org/2000/svg"
   xmlns="http://www.w3.org/2000/svg"
   xmlns:sodipodi="http://sodipodi.sourceforge.net/DTD/sodipodi-0.dtd"
   xmlns:inkscape="http://www.inkscape.org/namespaces/inkscape"
   version="1.0"
   width="580"
   height="580"
   id="svg2"
   sodipodi:version="0.32"
   inkscape:version="0.91 r"
   sodipodi:docname="statue.svg"
   inkscape:output_extension="org.inkscape.output.svg.inkscape">
  <metadata
     id="metadata2975">
    <rdf:RDF>
      <cc:Work
         rdf:about="">
        <dc:format>image/svg+xml</dc:format>
        <dc:type
           rdf:resource="http://purl.org/dc/dcmitype/StillImage" />
        <cc:license
           rdf:resource="http://web.resource.org/cc/PublicDomain" />
        <dc:language>en</dc:language>
        <dc:title></dc:title>
      </cc:Work>
    </rdf:RDF>
  </metadata>
  <sodipodi:namedview
     inkscape:window-height="1004"
     inkscape:window-width="1920"
     inkscape:pageshadow="2"
     inkscape:pageopacity="0.0"
     guidetolerance="10.0"
     gridtolerance="10.0"
     objecttolerance="10.0"
     borderopacity="1.0"
     bordercolor="#666666"
     pagecolor="#ffffff"
     id="base"
     inkscape:zoom="0.65172414"
     inkscape:cx="265.62382"
     inkscape:cy="305.11834"
     inkscape:window-x="1680"
     inkscape:window-y="0"
     inkscape:current-layer="svg2"
     showgrid="false"
     inkscape:window-maximized="1" />
  <defs
     id="defs4">
    <inkscape:perspective
       sodipodi:type="inkscape:persp3d"
       inkscape:vp_x="0 : 290 : 1"
       inkscape:vp_y="0 : 1000 : 0"
       inkscape:vp_z="580 : 290 : 1"
       inkscape:persp3d-origin="290 : 193.33333 : 1"
       id="perspective2441" />
    <inkscape:perspective
       id="perspective3452"
       inkscape:persp3d-origin="30 : 20 : 1"
       inkscape:vp_z="60 : 30 : 1"
       inkscape:vp_y="0 : 1000 : 0"
       inkscape:vp_x="0 : 30 : 1"
       sodipodi:type="inkscape:persp3d" />
    <symbol
       viewBox="244.5 110 489 219.9"
       id="symbol-university">
      <path
         id="path4460"
         d="M79,43l57,119c0,0,21-96,104-96s124,106,124,106l43-133l82-17L0,17L79,43z" />
      <path
         id="path4462"
         d="M94,176l-21,39"
         stroke-width="20"
         stroke="#000000"
         fill="none" />
      <path
         id="path4464"
         d="M300,19c0,10.5-22.6,19-50.5,19S199,29.5,199,19s22.6-19,50.5-19S300,8.5,300,19z" />
      <path
         id="path4466"
         d="M112,216l-16-38L64,88c0,0-9-8-4-35s16-24,16-24"
         stroke-width="20"
         stroke="#000000"
         ill="none" />
    </symbol>
    <inkscape:perspective
       id="perspective4471"
       inkscape:persp3d-origin="372.04724 : 350.78739 : 1"
       inkscape:vp_z="744.09448 : 526.18109 : 1"
       inkscape:vp_y="0 : 1000 : 0"
       inkscape:vp_x="0 : 526.18109 : 1"
       sodipodi:type="inkscape:persp3d" />
    <inkscape:perspective
       id="perspective4668"
       inkscape:persp3d-origin="6 : 4 : 1"
       inkscape:vp_z="12 : 6 : 1"
       inkscape:vp_y="0 : 1000 : 0"
       inkscape:vp_x="0 : 6 : 1"
       sodipodi:type="inkscape:persp3d" />
    <inkscape:perspective
       id="perspective5915"
       inkscape:persp3d-origin="0.5 : 0.33333333 : 1"
       inkscape:vp_z="1 : 0.5 : 1"
       inkscape:vp_y="0 : 1000 : 0"
       inkscape:vp_x="0 : 0.5 : 1"
       sodipodi:type="inkscape:persp3d" />
  </defs>
  <g
     id="g1327">
    <path
       d="M 66.275,1.768 C 24.94,1.768 1.704,23.139 1.704,66.804 L 1.704,516.927 C 1.704,557.771 22.599,579.156 63.896,579.156 L 515.92,579.156 C 557.227,579.156 578.149,558.841 578.149,516.927 L 578.149,66.804 C 578.149,24.203 557.227,1.768 514.628,1.768 C 514.624,1.768 66.133,1.625 66.275,1.768 z"
       style="fill:#111111;stroke:#eeeeee;stroke-width:3.40799999"
       id="path1329" />
  </g>
  <path
     inkscape:connector-curvature="0"
     d="m 289.99999,36.356263 c -19.51105,0 -29.38853,13.535796 -27.43743,40.85127 0,5.853322 2.31695,7.926368 4.26805,7.926368 1.9511,11.706643 7.31665,15.364969 7.31665,23.169379 0,5.85332 -3.90222,8.2922 -19.51106,12.19441 -9.75553,3.90222 -20.97438,15.12107 -26.8277,26.82771 -7.80443,17.55994 -15.85274,35.36379 -15.85274,45.11932 0,9.75552 21.70606,27.31548 35.36379,39.02211 0,0 -4.38999,27.31548 7.31665,78.04422 1.95111,40.97323 9.75552,83.89755 9.75552,117.06636 l 48.77766,0 c 0,-33.16881 7.80441,-76.09313 9.75553,-117.06636 11.70662,-50.72874 7.92636,-78.04422 7.92636,-78.04422 15.60885,-11.70663 37.19296,-29.26659 37.19296,-39.02211 0,-9.75553 -8.04831,-27.0716 -15.85274,-42.68045 -5.85332,-13.65773 -17.07218,-25.48631 -26.82771,-27.43741 -13.65774,-5.85332 -19.51106,-5.73138 -19.51106,-11.5847 0,-7.80442 5.36555,-10.12135 7.31666,-23.779098 1.9511,-1.951104 4.26803,-4.02415 4.26803,-7.926368 C 319.38853,49.770114 309.51104,36.356263 290,36.356263 Z M 231.46682,446.08846 c -9.75552,0 -19.51106,7.80441 -19.51106,19.51105 l 0,19.51106 156.08847,0 0,-19.51106 c 0,-11.70664 -7.80443,-19.51105 -19.51106,-19.51105 l -117.06635,0 z m -23.16938,58.53317 c -19.51105,0 -35.36378,15.85273 -35.36378,35.36379 l 0,3.65832 234.13267,0 0,-3.65832 c 0,-19.51106 -15.73078,-35.36379 -37.19293,-35.36379 l -161.57596,0 z"
     id="path4"
     style="fill:#ffffff;fill-opacity:1;stroke:none" />
</svg>

<svg width="580" height="580" viewBox="0 0 580 580" fill="none" xmlns="http://www.w3.org/2000/svg">
<g clip-path="url(#clip0)">
<path d="M66.2751 1.76815C24.9401 1.76815 1.7041 23.1391 1.7041 66.8041V516.927C1.7041 557.771 22.5991 579.156 63.8961 579.156H515.92C557.227 579.156 578.149 558.841 578.149 516.927V66.8041C578.149 24.2031 557.227 1.76815 514.628 1.76815C514.624 1.76815 66.1331 1.62515 66.2751 1.76815Z" fill="#111111" stroke="#EEEEEE" stroke-width="3.408"/>
<path d="M290 36.3564C270.489 36.3564 260.611 49.8922 262.562 77.2077C262.562 83.061 264.879 85.1341 266.831 85.1341C268.782 96.8407 274.147 100.499 274.147 108.303C274.147 114.157 270.245 116.596 254.636 120.498C244.881 124.4 233.662 135.619 227.808 147.326C220.004 164.886 211.956 182.689 211.956 192.445C211.956 202.2 233.662 219.76 247.319 231.467C247.319 231.467 242.929 258.782 254.636 309.511C256.587 350.484 264.392 393.409 264.392 426.578H313.169C313.169 393.409 320.974 350.484 322.925 309.511C334.631 258.782 330.851 231.467 330.851 231.467C346.46 219.76 368.044 202.2 368.044 192.445C368.044 182.689 359.996 165.373 352.191 149.764C346.338 136.107 335.119 124.278 325.364 122.327C311.706 116.474 305.853 116.596 305.853 110.742C305.853 102.938 311.218 100.621 313.169 86.9632C315.12 85.0121 317.437 82.9391 317.437 79.0369C319.388 49.7703 309.511 36.3564 290 36.3564V36.3564ZM231.467 446.089C221.711 446.089 211.956 453.893 211.956 465.6V485.111H368.044V465.6C368.044 453.893 360.24 446.089 348.533 446.089H231.467V446.089ZM208.297 504.622C188.786 504.622 172.934 520.475 172.934 539.986V543.644H407.066V539.986C407.066 520.475 391.336 504.622 369.873 504.622H208.297V504.622Z" fill="white"/>
</g>
<defs>
<clipPath id="clip0">
<path d="M0 0H580V580H0V0Z" fill="white"/>
</clipPath>
</defs>
</svg>
